X:1
T:I Cover the Waterfront
T:I Cover the Waterfront
T:John W. Green
T:Edward Heyman
T:1933
T:1933
C:John W. Green
Z:Edward Heyman
Z:1933
L:1/8
M:4/4
K:D
V:1 treble nm="Voice" snm="Vo."
V:1
"Em7" z8 |"A7" z8 |"Dother""Gother" z8 |"F#other""B7" z8 |:"Bm7""^A1" z2"E7" F2 (3E2 D2 E2 | %5
w: ||||I cov- er the|
"Em7" F2"Bb+" FF-"A7" F4 |"D6" z2 A2"Gother" (3A2 F2 D2 |"F#m7" C6"Fdim" B,C |"Em7" D D2 D- D3 E | %9
w: wat- er- front *|I'm wat- ching the|sea, will the|one I love * be|
"A7" F F2 F- F2 E2 |"D6" (A4"Gother" (A4) |"F#other" (A4)"B7b9" A4) || %12
w: com- ing back * to|me. *||
"Bm7""^A2" z2 F2"E7" (3E2 D2 E2 |"Em7" F2"Bb+" FF-"A7" F4 |"D" z2 A2"Gother" (3A2 F2 D2 | %15
w: I cov- er the|wat- er- front *|in search of my|
"F#m7" C6"Fdim" B,C |"Em7" D D2 D- D3 E |"C9" F"B9" F2 F-"Bb9" F2"A9" E2 |"Dother""Gother" D8- | %19
w: love, and I'm|cov- ered by * a|star- less sky * a-|bove.|
"F#m7" D2 z2"Bm7" z4 ||"Em7""^B" A2 AA-"A7" A4 |"F#m7" (3A,2 A,2 ^A,2"Bm7" B,B,- B,2 | %22
w: |Here am I *|pa- tient- ly wait- ing *|
"Em7" (3A2 A2 A2"A7" AA- A2 |"D6" (3A,2 A,2 ^A,2"Bm" B,4 |"F#m7" B2 BB-"B7" B4 | %25
w: hop- ing and long- ing *|oh! how I yearn!|Where are you? *|
"E" (3B,2 B,2 ^B,2"C#m" CC- C2 |"F#m7" (3B2 B2 B2"B7" ^G G3 |"Em7" (3G2 G2 G2"F#7" E4 || %28
w: Are you for- get- ting? *|Do you re- mem- ber?|Will you re- turn?|
"Bm7""^A3" z2 F2"E7" (3E2 D2 E2 |"Em7" F2"Bb+" FF-"A7" F4 |"Dother" z2 A2"Gother" (3A2 F2 D2 | %31
w: I cov- er the|wat- er- front *|I'm wat- ching the|
"F#m7" C6"Fdim" B,C |1"Em7" D D2 D- D3 E |"Gother" F F2 F-"A7" F2 E2 |"D" D8 |"F#m7""B7b9" z8 :|2 %36
w: sea, for the|one I love * must|soon come back * to|me.||
"Em7" D D2 D- D3 E |"Gother" F F2 F-"A7" F2 E2 |"D" (D4"Eb" (=F4) | %39
w: one I love * must|soon come back * to|me. *|
"D6""_Arr. Suki Wessling, 4/2020" F4) z4 |] %40
w: |

